X: 38
T:Hunter's Purse, The
M:C|
L:1/8
R:Reel
K:ADor
eA~A2 AGEF|GEAF GEDB|cBcd eged|(3Bcd ef gedg|!
eA~A2 AGEF|GEAF GEDB|cBcd eged|cABG A2cd:|!
|:eaab agef|g2af gedB|cBcd eged|(3Bcd ef "var."gafg|!
ea~a2 agef|g2af gedB|cBcd eged|cABG A2cd:|]!
